X:9229
T:Lancers Sett of Quadrils No.2. TLY.052
M:6/8
L:1/8
S:Wm.Tildesley,Swinton,Lancs.1860s.
R:Quadrille
O:England.
A:Lancashire.
H:1860.
Z:Taz Tarry.
K:A
A2AA2 B|c2A e3|A2A A2A| B2c dcB| A2A A2B|! c2A e3| e2f =gfe|B2c dcB||
e2e e2e| c2A e3|!e2e e2e| B2c dcB| e2e e2e|c2 A e3| e2f =gfe| B2c dcB||!


